X: 35
T:En s\omann har sin enegang
M:6/8
L:1/8
C:anon.
O:Denmark
Z:Transcribed by Frank Nordberg - http://www.musicaviva.com
K:D
%http://www.musicaviva.com/abc/denmark.abc
A|"D"F2A A2A|"Bm"D2F F2F|"Em"E2G "A7"E2C|"D"D3- D2 :| A|
"D"A2F d2c|"G"c2B "Em"E2F|"A7"G2A c2B|"D"A3- "A7"A2A|
"D"F2A A2A|"Bm"D2F F2F|"Em"E2G "A7"E2C|"D"D3- D2|]
%Sorry, no lyrics. The only ones I know are probably still copyrighted.
W:
W: From "Falaleiro" http://home.t-online.de/home/pheld/homepage.htm

